src/assets/footer/linkedin.svg

<svg fill="none" height="24" viewBox="0 0 24 24" width="24" xmlns="http://www.w3.org/2000/svg"><path clip-rule="evenodd" d="m5.11877 7.60674h-.0254c-1.26999 0-2.09337-.8133-2.09337-1.84422 0-1.05098.84772-1.84724 2.14311-1.84724 1.29433 0 2.09019.79425 2.11559 1.84423 0 1.03092-.82126 1.84723-2.13993 1.84723zm15.88123 11.96996h-3.9782v-5.5056c0-1.4411-.6223-2.4249-1.9908-2.4249-1.0466 0-1.6287.6639-1.8997 1.3037-.0894.2022-.0878.4744-.0861.7549.0002.0381.0004.0763.0004.1145v5.7574h-3.94118s.0508-9.75267 0-10.63919h3.94118v1.66969c.2329-.73002 1.4923-1.77198 3.502-1.77198 2.4934 0 4.4524 1.53038 4.4524 4.82568zm-14.03763-10.63919h-3.50835v10.63919h3.50835z" fill="#fff" fill-rule="evenodd"/></svg>

<svg width="24" height="24" viewBox="0 0 24 24" fill="none" xmlns="http://www.w3.org/2000/svg">
<path fill-rule="evenodd" clip-rule="evenodd" d="M5.11877 7.60674H5.09337C3.82338 7.60674 3 6.79344 3 5.76252C3 4.71154 3.84772 3.91528 5.14311 3.91528C6.43744 3.91528 7.2333 4.70953 7.2587 5.75951C7.2587 6.79043 6.43744 7.60674 5.11877 7.60674ZM21 19.5767H17.0218V14.0711C17.0218 12.63 16.3995 11.6462 15.031 11.6462C13.9844 11.6462 13.4023 12.3101 13.1313 12.9499C13.0419 13.1521 13.0435 13.4243 13.0452 13.7048C13.0454 13.7429 13.0456 13.7811 13.0456 13.8193V19.5767H9.10442C9.10442 19.5767 9.15522 9.82403 9.10442 8.93751H13.0456V10.6072C13.2785 9.87718 14.5379 8.83522 16.5476 8.83522C19.041 8.83522 21 10.3656 21 13.6609V19.5767ZM6.96237 8.93751H3.45402V19.5767H6.96237V8.93751Z" fill="white"/>
</svg>
